assets/img/shuttle.svg

<svg width="42" height="64" viewBox="0 0 42 64" xmlns="http://www.w3.org/2000/svg"><title>fusée</title><g fill="#F33A56"><path d="M22.614 1.174a2.82 2.82 0 0 0-3.228 0c-7.313 5.093-9.741 13.943-9.741 19.427v19.914a2.795 2.795 0 0 0 2.796 2.795l1.638 5.071H27.92l1.638-5.071a2.796 2.796 0 0 0 2.796-2.796V20.601c.001-5.484-2.428-14.334-9.74-19.427zm1.588 17.06a4.53 4.53 0 1 1-6.404-6.406 4.53 4.53 0 0 1 6.404 6.406zM.239 43.597v1.623l6.404-5.887V23.959A33.309 33.309 0 0 0 .239 43.597zm35.118-19.639v15.374l6.404 5.887v-1.623a33.313 33.313 0 0 0-6.404-19.638zM14.885 51.637c-.146 2.156.146 4.78 1.684 7.265l1.545-2.895s.862 4.329 2.886 7.326c2.015-2.988 2.886-7.326 2.886-7.326l1.545 2.895c1.537-2.484 1.83-5.109 1.684-7.265h-12.23z"/></g></svg>

<?xml version="1.0" encoding="UTF-8"?>
<svg width="42px" height="64px" viewBox="0 0 42 64" version="1.1" xmlns="http://www.w3.org/2000/svg" xmlns:xlink="http://www.w3.org/1999/xlink">
    <!-- Generator: Sketch 50.2 (55047) - http://www.bohemiancoding.com/sketch -->
    <title>fusée</title>
    <desc>Created with Sketch.</desc>
    <defs></defs>
    <g id="Page-1" stroke="none" stroke-width="1" fill="none" fill-rule="evenodd">
        <g id="Desktop-HD" transform="translate(-1318.000000, -4128.000000)" fill="#F33A56" fill-rule="nonzero">
            <g id="last-section" transform="translate(50.000000, 2869.000000)">
                <g id="fusée" transform="translate(1268.000000, 1259.000000)">
                    <g id="Group">
                        <path d="M22.614,1.174 C21.642,0.497 20.358,0.497 19.386,1.174 C12.073,6.267 9.645,15.117 9.645,20.601 C9.645,21.954 9.645,34.748 9.645,40.515 C9.645,42.059 10.897,43.31 12.441,43.31 L14.079,48.381 L27.92,48.381 L29.558,43.31 C31.102,43.31 32.354,42.058 32.354,40.514 L32.354,20.601 C32.355,15.117 29.926,6.267 22.614,1.174 Z M24.202,18.234 C22.434,20.002 19.567,20.002 17.798,18.234 C16.03,16.466 16.03,13.599 17.798,11.83 C19.566,10.062 22.433,10.062 24.202,11.83 C25.971,13.598 25.97,16.466 24.202,18.234 Z" id="Shape"></path>
                        <path d="M0.239,43.597 L0.239,45.22 L6.643,39.333 C6.643,35.352 6.643,29.097 6.643,23.959 C2.481,29.661 0.239,36.538 0.239,43.597 Z" id="Shape"></path>
                        <path d="M35.357,23.958 L35.357,39.332 L41.761,45.219 L41.761,43.596 C41.761,36.538 39.519,29.661 35.357,23.958 Z" id="Shape"></path>
                        <path d="M14.885,51.637 C14.739,53.793 15.031,56.417 16.569,58.902 L18.114,56.007 C18.114,56.007 18.976,60.336 21,63.333 C23.015,60.345 23.886,56.007 23.886,56.007 L25.431,58.902 C26.968,56.418 27.261,53.793 27.115,51.637 L14.885,51.637 Z" id="Shape"></path>
                    </g>
                </g>
            </g>
        </g>
    </g>
</svg>
